X:1
T:The Mistakes of My Life
T:Robert Lowry
T:The Mistakes of My Life
T:Public Domain
T:Public Domain
C:Robert Lowry
Z:Public Domain
%%score ( 1 2 ) ( 3 4 )
L:1/8
M:6/8
K:G
V:1 treble 
V:2 treble 
V:3 bass 
V:4 bass 
V:1
 [DG]/[DA]/ | [GB]>[Gc][GB] ([DB][DA])[DG] | [DG] [DF]3 z ([DF]/[DG]/) | %3
w: 1.~The mis-|takes of my life~have * been|ma- ny, The *|
w: 2.~I am|low- est of those * who|love Him, I~am *|
w: 3.~My mis-|takes His free grace * will|co- ver, My *|
w: 4.~The mis-|takes of my life~have * been|ma- ny, And~my *|
 [DA]>[DA][DA] ([FA][GB])[Ac] | [GB]3- [GB]2 [GB]/[Ac]/ | [Bd]2 (B/A/) (GA)[GB] | %6
w: sins of my heart~have * been|more, * And I|scarce can * see * for|
w: weak- est of those * who|pray; * But I|come as * He * has|
w: sins He will wash * a-|way, * And the|feet that~can * shrink * and|
w: spir- it is sick * with|sin, * And I|scarce can * see * for|
 [Gc] [Gc]3 z ([GB]/[EA]/) | [DG]>[FA][GB] [GB]2 [FA] | G3- G2 || [GB] | %10
w: But~I’ll knock at *|the o- pen door. *|||
w: And He will *|not say me nay. *|||
w: Shall walk thro’ *|the gates of day. *|||
w: But~the Sav- ior *|will let me in. *|||
"^Refrain" [FA]>[GB][Ac] ([Ac][GB])[FA] | [GB] [Gd]3 z [GB] | [Dd]>[Dc][DB] (BA)G | %13
w: |||
w: |||
w: |||
w: |||
 [FA]3- [FA]2 [FA] | [GB]>[GB][GB] [Gc][Gd][Ge] | [Fd][FB][FA] [GB]2 [FA] | %16
w: |||
w: |||
w: |||
w: |||
 [EG]>[FA][GB] [GB]2 [FA] | G3- G2 |] %18
w: ||
w: ||
w: ||
w: ||
V:2
 x | x6 | x6 | x6 | x6 | x2 G D2 x | x6 | x6 | G3- G2 || x | x6 | x6 | x3 G2 G | x6 | x6 | x6 | %16
w: |||||weep- ing,|||||||||||
w: |||||bid- den,|||||||||||
w: |||||fal- ter|||||||||||
w: |||||weep- ing,|||||||||||
 x6 | G3- G2 |] %18
w: ||
w: ||
w: ||
w: ||
V:3
 [G,B,]/[G,C]/ | [G,D]>[G,E][G,D] ([G,D][G,C])[G,B,] | [D,B,] [D,A,]3 z ([D,A,]/[D,B,]/) | %3
w: ~ ~|~ ~ ~ ~ * ~|~ ~ ~ *|
 [D,C]>[D,C][D,C] ([D,D][D,D])[D,D] | [G,D]3- [G,D]2 [G,D]/[G,D]/ | [G,D]2 (D/C/) (B,C)[G,D] | %6
w: ~ ~ ~ ~ * ~|~ * ~ ~|~ ~ * ~ * ~|
 [C,E] [C,E]3 z ([C,D]/[C,C]/) | [D,B,]>[D,D][D,D] [D,D]2 [D,C] | [G,,B,]3- [G,,B,]2 || [G,D] | %10
w: ~ ~ ~ *|~ ~ ~ ~ I|know *|I|
 [D,D]>[D,D][D,D] [D,D]2 [D,D] | [G,D] [G,B,]3 z [G,D] | [G,B,]>[G,A,]G, (DC)[G,B,] | %13
w: am weak and sin- ful,|It comes to|me more and more; * But|
 [D,D]3- [D,D]2 [D,D] | [G,D]>[G,D][=F,D] [E,C][D,B,][C,C] | [D,A,][D,D][D,D] [G,D]2 [D,C] | %16
w: dear * Sav-|ior shall bid me come in,|I’ll en- ter the o-|
 [E,B,]>[D,D][G,D] [D,D]2 [D,C] | [G,,B,]3- [G,,B,]2 |] %18
w: pen door. * * *||
V:4
 x | x6 | x6 | x6 | x6 | x2 G, G,2 x | x6 | x6 | x5 || x | x6 | x6 | x2 G, G,2 x | x6 | x6 | x6 | %16
w: |||||~ ~|||||||when the||||
 x6 | x5 |] %18
w: ||

